X:2119
T:Gaily We Went and Gaily We Came
O:england
B:Joyce, P. W.; "Old Irish Folk Music and Songs"
R:tune
H:From Phil Gleeson of Coolfree.
L:1/8
M:6/8
K:G
B/c/|dGA FED|GAB cBc|dGB cAG|(=F3 F2) B/c/|
dGA FED|cBc d2 e/f/|gBe dcA|(G3 G2)||G/A/|
BBc dde|=fdB c2 B/c/|dGB cAG|(=F3 F2)B/c/|
dGA G/F/G/A/B/d/|cBc d2 e/f/|g/B/c/d/e/f/ dcA|(G3 G2)||
